X:536
T: WENN ICH EINST DAS ZIEL ERRUNGEN HABE
N: F1041
O: Europa, Mitteleuropa, Deutschland
R: Trost - Lied
M: 3/4
L: 1/16
K: Eb
BcAF | E2E2G2B2e2dc | B3AA2z2
A2G2 | F2G2A2B2c2BA | G4
e6dc | B3=AA2A2Acce | d3AA4
G2G2 | FcAFEGGBAFD2 | E4z4

